X:1
L:1/8
Q:3/8=120
M:6/8
K:F
 c2 F AcA | F2 c c2 f | c2 F AcA | G2 d d2 f | c2 F AcA | f2 a- agf | edc GA=B | c2 c c3 |: 
 g2 c ege | c2 g g2 a | gfe dcB | B3 A2 d | c2 F AcA | d2 f- fed | cBA GCE | F2 F F3""^*"" :|
